X: 1313
T: The Merry Merchant
R:Reel
N:Collected by McFadden
B:O'Neill's 1313
Z:Transcribed by Trish O'Neil
M:C|
L:1/8
K:G
GBdg (3efg dB|GABG AGEF|GBdg egdg|egfa gedB|
G3g (3efg dB|GABG AGEF|GBdg egdg|egf"H"ag2(dg)||
ea{b}ag fdef|{a}gfga bged|ea{b}ag fddf|egfag2dg|
ea{b}ag fddf|gfga bgef|~gfega2ga|bc'ba "D.C."gedB|]


